X:1
T:Title
%%score { 1 | 2 }
L:1/8
M:3/4
K:G
V:1 treble nm="Grand Piano"
V:2 bass 
V:1
 z2 z2[Q:1/4=100] [B,G][CA] | [DB]3 [Ec] [DB][B,G] | [CE]2 [B,D]2 [B,D][DG] | [EG]3 [EG] [DG][DB] | %4
[M:2/4] A4 |[M:1/4] GA |[M:3/4] B3 c B[DG] | [EA]2 [EG]2 EG | D[DB] [CA]3 [DB] |[M:2/4] [B,G]4 | %10
[M:1/4] Bc |[M:3/4] d3 e dB | [FA]2 G2 G[=FG] | [EG]4 [Ec]>[Ec] |[M:2/4] [DB]4 |[M:1/4] Bc | %16
[M:3/4] d3 e dB | A2 G2 EG | D[DB] [CA]3 [DB] |[M:2/4] [B,G]4 |] %20
V:2
 z2 z2 [G,,G,][G,,G,] | [G,,G,]3 [G,,G,] [G,,G,][G,,G,] | [G,,G,]2 [G,,G,]2 [G,,G,][B,,G,] | %3
 [C,G,]3 [C,G,] [B,,G,][G,,G,] |[M:2/4] [D,F,D]4 |[M:1/4] [G,B,][G,C] | %6
[M:3/4] [G,D]3 [G,E] [G,D][B,,G,] | [C,C]2 [C,C]2 [C,G,C][C,E,C] | [B,,G,][G,,G,] [D,F,]3 [D,F,] | %9
[M:2/4] [G,,G,]4 |[M:1/4][K:treble] [G,D][G,A,D] |[M:3/4] [G,B,G]3 [G,CG] [G,B,G][G,DG] | %12
 [D,C]2 [E,B,]2 [E,B,][D,B,] | [C,C]4 [C,G,]>[C,G,] |[M:2/4] [G,,G,]4 | %15
[M:1/4][K:treble] [G,D][G,A,D] |[M:3/4] [G,B,G]3 [G,CG] [G,B,G][K:bass][G,D] | %17
 [D,F,C]2 [E,G,B,]2 [C,G,C][C,E,C] | [B,,G,][G,,G,] [D,F,]3 [D,F,] |[M:2/4] [G,,G,]4 |] %20

